!!!COM:	Johannes Ockeghem
!!!CDT:	~1425-1497/02/06
!!!OPR:	Missa Au travail suis
!!!ONM:	1
!!!OTL:	Kyrie
!!!AGN:	Mass; Kyrie
!!!SCT:	Ock1002a
!!!SCA:	Ock1002a
!!!voices:	4
!!!voices-OPR:	4
**kern	**kern	**kern	**kern
*staff4	*staff3	*staff2	*staff1
*Ivox	*Ivox	*Ivox	*Ivox
*I"Bassus	*I"Tenor	*I"Contratenor	*I"Discantus
*I'B	*I'T	*I'Ct	*I'D
*>[A,B,C]	*>[A,B,C]	*>[A,B,C]	*>[A,B,C]
*>A	*>A	*>A	*>A
*clefF4	*clefF4	*clefG2	*clefG2
*k[]	*k[]	*k[]	*k[]
*M2/1	*M2/1	*M2/1	*M2/1
*met(C)	*met(C)	*met(C)	*met(C)
!!incipit: 6
!!section: Kyrie I
!!!OMD: Kyrie I
=1-	=1-	=1-	=1-
0r	0r	0r	1d
.	.	.	1f
=2	=2	=2	=2
0r	0r	1r	1e
.	.	1d	1d
=3	=3	=3	=3
0r	0r	1f	2a/
.	.	.	1a
.	.	1e	.
.	.	.	2g/
=4	=4	=4	=4
1D	0r	1d	1a
1F	.	2c/	1a
.	.	2A/	.
=5	=5	=5	=5
1E	1r	2B/	1g
.	.	2c/	.
2r	1D	1d	2.f/
2D\	.	.	.
.	.	.	4e/
=6	=6	=6	=6
2A\	1F	2r	2d/
1A	.	2A/	2c/
.	1E	1B	2e/
2G\	.	.	2g/
=7	=7	=7	=7
1A	1AA	1c	2f/
.	.	.	2.e/
2F\	1r	2A/	.
.	.	.	4d/
2D\	.	[2a/	[2d/
=8	=8	=8	=8
1E	1G	2a/]	2d/]
.	.	2g/	2c/
2D\	1A	2f/	2d/
2C/	.	[2e/	2A/
=9	=9	=9	=9
1D	2F\	4e/]	1a
.	.	4d/	.
.	2D\	1d	.
2r	1E	.	1g
2E\	.	2c#i/	.
=10	=10	=10	=10
2.F\	1D	0d	2b-i\
.	.	.	1a
4E\	.	.	.
2D\	2F\	.	.
2BB/	2G\	.	2dd\
=11	=11	=11	=11
1AA	2A\	2r	2cc\
.	2c\	1e	1a
1E	1B	.	.
.	.	2e/	2g#i/
=12	=12	=12	=12
0AAl	0Al	0el	0al
!!LO:LB:i:g=z
=13||	=13||	=13||	=13||
*>B	*>B	*>B	*>B
*clefF4	*clefF4	*clefG2	*clefG2
*k[]	*k[]	*k[]	*k[]
*M2/1	*M2/1	*M2/1	*M2/1
*met(C)	*met(C)	*met(C)	*met(C)
!!section: Christe
!!!OMD: Christe
0r	1D	0r	1f
.	1C	.	1e
=14	=14	=14	=14
0r	1.F	0r	2.d/
.	.	.	4c/
.	.	.	4B/
.	.	.	4A/
.	2D\	.	[2A/
=15	=15	=15	=15
0r	2F\	1r	2A/]
.	2E\	.	2G/
.	1AA	1c	1A
=16	=16	=16	=16
0r	1BB-	1.d	0r
.	1GG	.	.
.	.	[2e/	.
=17	=17	=17	=17
0r	2AA/	2e/]	0r
.	2BB-/	2.d/	.
.	2GG/	.	.
.	.	4c/	.
.	[2D\	[2B-i/	.
=18	=18	=18	=18
0r	2D\]	4B-iy/]	0r
.	.	4A/	.
.	2C/	1A	.
.	1BB-	.	.
.	.	2G/	.
=19	=19	=19	=19
1C	1AA	0A	1e
1D	1r	.	2f/
.	.	.	[2a/
=20	=20	=20	=20
1E	1AA	1c	2a/]
.	.	.	2g/
1D	1BB	1d	2f/
.	.	.	4e/
.	.	.	4d/
=21	=21	=21	=21
2r	1.C	1.e	1c
1G	.	.	.
.	.	.	2r
2A\	4BB/	2c/	[2e/
.	4AA/	.	.
=22	=22	=22	=22
1B	1GG	2d/	4e/]
.	.	.	4f/
.	.	2e/	2g/
1c	1FF	1f	2a/
.	.	.	[2cc\
=23	=23	=23	=23
2.A\	2.AA/	1e	2cc\]
.	.	.	2b\
4G\	4BB-/	.	.
2E\	2C/	2r	2g/
[2D\	[2D\	[2f/	2r
=24	=24	=24	=24
4D\]	2D\]	2f/]	1a
4BB/	.	.	.
2C/	2C/	2e/	.
2FF/	1F	2c/	2a/
[2BB-/	.	[2d/	[2b-\
=25	=25	=25	=25
2BB-/]	2G\	2d/]	2b-\]
2C/	2E\	1c	2g/
1F	1D	.	2a/
.	.	2B/	2f/
=26	=26	=26	=26
0Gl	0Cl	0cl	0el
!!LO:LB:i:g=z
=27||	=27||	=27||	=27||
*>C	*>C	*>C	*>C
*clefF4	*clefF4	*clefG2	*clefG2
*k[]	*k[]	*k[]	*k[]
*M2/1	*M2/1	*M2/1	*M2/1
*met(C)	*met(C)	*met(C)	*met(C)
!!section: Kyrie II
!!!OMD: Kyrie II
0r	1.F	1c	0a
.	.	1A	.
.	2D\	.	.
=28	=28	=28	=28
0r	1D	1.d	1f
.	[1G	.	1d
.	.	2B/	.
=29	=29	=29	=29
1r	2G\]	2B/	0g
.	2E\	2G/	.
1E	2E\	1G	.
.	2C/	.	.
=30	=30	=30	=30
1G	2r	2B/	1e
.	2C/	2c/	.
1F	2.D\	4A/	2r
.	.	2d/	.
.	.	.	2a/
.	4F\	4c/	.
=31	=31	=31	=31
2G\	2E\	4c/	2g/
.	.	4B/	.
2A\	2D\	2.d/	2f/
2D\	2F\	.	2a/
.	.	4c/	.
4E\	2G\	2B/	4g/
[4C/	.	.	[4e/
=32	=32	=32	=32
4C/]	1A	2A/	4e/]
4D\	.	.	4f/
4C/	.	2r	4e/
4AA/	.	.	8d/L
.	.	.	8c/J
2E\	2G\	2e/	2B/
2AA/	[2A\	4c/	2A/
.	.	[4A/	.
=33	=33	=33	=33
1r	4A\]	4A/]	1r
.	4F\	4c/	.
.	2G\	2B/	.
1F	2F\	1A	1d
.	2A\	.	.
=34	=34	=34	=34
2E\	2r	2G/	2c/
1C	2AA/	2A/	2.e/
.	2.C/	4G/	.
.	.	2A/	4f/
[2E\	.	.	[2g/
.	4D\	[4B/	.
=35	=35	=35	=35
2E\]	2.E\	4B/]	4g/]
.	.	2c/	4a/
2G\	.	.	2.b\
.	4F\	2d/	.
1GG	2.G\	.	.
.	.	2e/	4cc\
.	.	.	[2dd\
.	4F\	[4d/	.
=36	=36	=36	=36
2BB/	2G\	4d/]	2dd\]
.	.	4g/	.
1AA	2A\	4f/	2cc\
.	.	2e/	.
.	2F\	.	2a/
.	.	2f/	.
2D\	2D\	.	[2a/
.	.	[4d/	.
=37	=37	=37	=37
1AA	1E	4d/]	4a/]
.	.	4c#i/	4g/
.	.	4c#i/	2a/
.	.	4B/	.
*^	*	*	*
[1Dl\	[1Al/	[1Dl	[1dl	2.f/
.	.	.	.	4g/
=38	=38	=38	=38	=38
0D]\yy	0A]/yy	0D]	0d]	1a
*v	*v	*	*	*
.	.	.	1al
==	==	==	==
*-	*-	*-	*-
!!!RDF**kern: l=long note in original notation
!!!RDF**kern: i=editorial accidental
!!!RDF**kern: V=start of tuplet marker
!!!RDF**kern: Z=end of tuplet marker
!!!ENC:	Jesse Rodin 8-17-2012
!!!END:	2012/08/17/
!!!EED:	Jesse Rodin
!!!EEV:	2012/08/17/
!!!ONB:	Translated from MusicXML and edited on 2012/08/17/ by Craig Sapp
!!muse2ps: T^@{OPR}^u^@{ONM}{. }@{OTL}^C^@{COM}^i2I150v85,85,85,150Q16
